icons/svg/text-typography.svg

<svg width="24" height="24" viewBox="0 0 24 24" fill="none" xmlns="http://www.w3.org/2000/svg">
<path d="M2.25 18.25L4.125 13.8464M4.125 13.8464H10.875M4.125 13.8464L6.99802 7.09878C7.19602 6.63374 7.80398 6.63374 8.00198 7.09878L10.875 13.8464M10.875 13.8464L12.75 18.25" stroke="currentColor" stroke-width="1.5" stroke-linecap="round" stroke-linejoin="round"/>
<path d="M21.75 13.3027L21.68 13.2891C18.7991 12.7315 15.3722 12.817 15.3722 15.7513C15.3722 16.5745 15.8362 17.3486 16.5119 17.7702C17.1821 18.1884 18.0273 18.1999 18.8173 18.1999C19.9031 18.1999 21.0942 17.5735 21.5707 16.5979C21.6615 16.4119 21.7234 16.2007 21.75 15.9648V14.8402M21.75 13.3027V12.7162C21.75 11.982 21.6648 11.0124 21.2329 10.4187C20.7633 9.77303 19.9301 9.04443 18.5611 9.04443C16.3 9.04443 15.57 10.6389 15.57 10.6389M21.75 13.3027V14.8402M21.75 18.1002V14.8402" stroke="currentColor" stroke-width="1.5" stroke-linecap="round" stroke-linejoin="round"/>
</svg>

<svg xmlns="http://www.w3.org/2000/svg" width="24" height="24" fill="none" viewBox="0 0 24 24"><path stroke="currentColor" stroke-linecap="round" stroke-linejoin="round" stroke-width="1.5" d="m2.25 18.25 1.875-4.404m0 0h6.75m-6.75 0L6.998 7.1a.536.536 0 0 1 1.004 0l2.873 6.747m0 0 1.875 4.404m9-4.948-.07-.014c-2.88-.557-6.308-.472-6.308 2.462 0 .824.464 1.598 1.14 2.02.67.417 1.515.429 2.305.429 1.086 0 2.277-.626 2.754-1.602q.137-.279.179-.633V14.84m0-1.537v-.587c0-.734-.085-1.704-.517-2.297-.47-.646-1.303-1.375-2.672-1.375-2.261 0-2.991 1.595-2.991 1.595m6.18 2.664v1.537m0 3.26v-3.26"/></svg>
